public/assets/images/achievement/01.svg

<svg width="98" height="98" viewBox="0 0 98 98" fill="none" xmlns="http://www.w3.org/2000/svg">
<path d="M43.2043 17.8757C43.2043 17.03 43.8899 16.3444 44.7356 16.3444H68.6836C69.5292 16.3444 70.2148 17.03 70.2148 17.8757C70.2148 18.7213 69.5292 19.4069 68.6836 19.4069H44.7356C43.8899 19.4069 43.2043 18.7215 43.2043 17.8757ZM30.5805 21.1413C30.8795 21.4402 31.2713 21.5897 31.6633 21.5897C32.0553 21.5897 32.4471 21.4402 32.7461 21.1413L37.4399 16.4474C38.0381 15.8494 38.0379 14.88 37.4399 14.282C36.842 13.6841 35.8725 13.6841 35.2746 14.282L31.6635 17.8933L30.3992 16.629C29.8013 16.0311 28.8318 16.0311 28.2339 16.629C27.6357 17.227 27.6359 18.1965 28.2339 18.7944L30.5805 21.1413ZM44.7356 35.739H68.6836C69.5292 35.739 70.2148 35.0534 70.2148 34.2078C70.2148 33.3622 69.5292 32.6765 68.6836 32.6765H44.7356C43.8899 32.6765 43.2043 33.3622 43.2043 34.2078C43.2043 35.0534 43.8899 35.739 44.7356 35.739ZM30.5805 37.6374C30.8795 37.9364 31.2713 38.0859 31.6633 38.0859C32.0553 38.0859 32.4471 37.9364 32.7461 37.6374L37.4399 32.9436C38.0381 32.3456 38.0379 31.3761 37.4399 30.7782C36.842 30.1802 35.8725 30.1802 35.2746 30.7782L31.6635 34.3894L30.3992 33.1252C29.8013 32.5272 28.8318 32.5272 28.2339 33.1252C27.6357 33.7232 27.6359 34.6926 28.2339 35.2906L30.5805 37.6374ZM91.3141 64.8012L84.5427 68.7105C83.8414 69.1155 83.0618 69.3222 82.2705 69.3222C81.8718 69.3222 81.4705 69.27 81.0744 69.1637C79.8927 68.8472 78.9064 68.0917 78.2975 67.0372L78.1122 66.7164L74.6868 68.4655C75.711 70.0894 75.5629 72.0919 74.6629 73.6392C74.2104 74.4169 73.5638 75.087 72.7892 75.5498C73.2384 76.2852 73.4771 77.1283 73.4739 78.0262C73.467 79.8873 72.419 81.6871 70.804 82.6116C69.9066 83.1251 68.9142 83.3244 67.9206 83.2095C67.8697 84.0444 67.6126 84.8648 67.1925 85.5862C66.304 87.1117 64.6682 88.2152 62.7869 88.1669C62.7668 89.0686 62.5036 89.9612 62.0506 90.7389C61.1827 92.2286 59.6038 93.3213 57.7763 93.3213C56.9438 93.3213 56.0597 93.0945 55.168 92.5752L51.1239 90.2203L50.3373 91.3389C49.3517 92.74 47.9076 93.5183 46.3246 93.5183C46.1795 93.5183 46.0333 93.5118 45.8861 93.4986C44.0706 93.3357 42.3989 92.1828 41.5954 90.549C39.8897 91.4304 37.906 91.1096 36.4408 90.0791C35.4947 89.4136 34.7537 88.4447 34.4157 87.3292C33.0091 87.6367 31.5356 87.2652 30.3828 86.4542C28.9469 85.4442 27.9841 83.7349 28.1845 81.8756C27.2816 81.7809 26.4086 81.4411 25.6679 80.9201C23.6152 79.4759 22.5298 76.6026 24.4272 73.9053L24.5573 73.7202L19.481 67.381C18.8674 68.2553 17.9743 68.8829 16.9256 69.1639C16.5298 69.2702 16.128 69.3224 15.7295 69.3224C14.9382 69.3224 14.1586 69.1157 13.4571 68.7107L6.68592 64.8012C4.50274 63.541 3.75205 60.7394 5.01246 58.556L16.8965 37.9722C17.2617 37.3398 17.7567 36.8283 18.328 36.4503V6.0127C18.328 5.16706 19.0136 4.48145 19.8593 4.48145H78.1406C78.9862 4.48145 79.6718 5.16706 79.6718 6.0127V36.4503C80.2432 36.8281 80.7383 37.3396 81.1033 37.972L92.9874 58.5558C94.2478 60.7394 93.4971 63.5408 91.3141 64.8012ZM21.3905 7.54395V35.7182C21.9906 35.788 22.5862 35.9779 23.1417 36.2987L29.9131 40.2082C30.9677 40.8171 31.723 41.8032 32.0396 42.9851C32.2369 43.7218 32.2486 44.4779 32.0821 45.1983L40.5717 48.231C44.1525 45.0303 46.794 43.8931 52.2427 45.0925C57.3508 46.217 61.6354 46.2273 65.8984 45.1055C65.7535 44.413 65.7709 43.6903 65.96 42.9849C66.2766 41.803 67.0319 40.8167 68.0868 40.208L74.8579 36.2985C75.4134 35.9777 76.0091 35.788 76.6091 35.7182V7.54395H21.3905ZM17.0502 65.506L28.9342 44.9221C29.1341 44.5759 29.1865 44.1695 29.0816 43.7779C28.9767 43.3863 28.7281 43.0603 28.3818 42.8605L21.6106 38.951C21.3737 38.8142 21.1143 38.7491 20.8584 38.7491C20.3363 38.7491 19.8281 39.0199 19.5488 39.5034L7.66477 60.0873C7.24866 60.8081 7.49653 61.733 8.21717 62.1489L14.9886 66.0586C15.335 66.2586 15.7415 66.311 16.133 66.2057C16.5246 66.1009 16.8504 65.8524 17.0502 65.506ZM30.1847 77.9562L33.7039 72.953L33.7044 72.9521C34.7738 71.4265 33.4742 70.3977 33.2028 70.2069C32.9312 70.0159 31.5222 69.1412 30.4486 70.6674L26.9319 75.6668C25.8579 77.1936 27.1584 78.224 27.43 78.415C27.7014 78.6062 29.1096 79.4813 30.1837 77.9573L30.1847 77.9562ZM35.1986 83.0646L40.1146 76.0756L40.8621 75.0129C41.9361 73.4861 40.6355 72.4557 40.3639 72.2647C40.0921 72.0735 38.6827 71.1978 37.6086 72.7245L36.21 74.713C36.2098 74.7134 36.2096 74.7136 36.2094 74.7139L36.2088 74.7149L32.6896 79.7181L31.6466 81.2009C30.5727 82.7279 31.8733 83.7583 32.1449 83.9493C32.4165 84.1401 33.826 85.0156 34.9 83.4893L35.1986 83.0646ZM42.0706 85.5315C42.0718 85.5299 42.0729 85.5284 42.0741 85.5269L43.8375 83.0196L45.8716 80.1279C46.9452 78.6014 45.6451 77.5711 45.3737 77.3799C45.1025 77.1892 43.6949 76.3137 42.6211 77.8356L42.6196 77.8379L37.7037 84.8267L37.7027 84.8282C36.6314 86.3539 37.9311 87.3835 38.2027 87.5745C38.4743 87.7656 39.8838 88.6414 40.9576 87.1146L42.0706 85.5315ZM49.097 84.322C48.8253 84.1308 47.4168 83.2555 46.3432 84.7806L46.3424 84.7817L44.579 87.289C44.1307 87.9263 44.045 88.5551 44.3244 89.1578C44.6452 89.8496 45.3999 90.3806 46.1594 90.4485C46.8209 90.5078 47.3839 90.2146 47.8323 89.5772L49.5956 87.0704C50.6692 85.5435 49.3686 84.513 49.097 84.322ZM71.3207 69.3946L52.3855 58.4341C50.6833 57.451 49.0007 58.1594 46.396 59.3957C46.2695 59.4556 46.1432 59.5157 46.0165 59.5754C45.8264 59.9571 45.6346 60.3669 45.435 60.7934C44.4515 62.8946 43.3368 65.2759 41.4086 66.3168C39.139 67.5416 37.1138 67.7286 35.7058 66.8428C35.0577 66.4349 33.9862 65.4212 34.0909 63.2127L34.4963 54.6779C34.5147 54.289 34.6808 53.9217 34.9606 53.6507C35.7571 52.8795 36.4716 52.1753 37.1628 51.4945C37.4788 51.1832 37.7829 50.8837 38.0798 50.5927L30.7153 47.9619L21.1381 64.5503L26.392 71.1113L27.9437 68.9052C29.8403 66.2082 32.9109 66.2584 34.9637 67.7008C35.6319 68.1703 36.1977 68.7913 36.5916 69.5083C38.3757 68.3639 40.5505 68.6514 42.1257 69.7594C43.4476 70.6891 44.3685 72.2117 44.3503 73.898C45.3481 73.9481 46.3221 74.3018 47.1364 74.8749C48.9528 76.1533 50.0115 78.5507 48.9155 80.9549C49.612 81.1094 50.2764 81.4067 50.859 81.8167C52.6075 83.0468 53.6528 85.3133 52.753 87.6249L56.709 89.9285C58.3224 90.8675 59.2373 89.484 59.4044 89.1971C59.5715 88.9104 60.3229 87.4331 58.7138 86.4931L58.7117 86.4918C58.7115 86.4916 58.7115 86.4916 58.7111 86.4914C58.7111 86.4914 58.7111 86.4914 58.7109 86.4914L53.6134 83.5234C52.8826 83.0979 52.6351 82.1606 53.0606 81.4298C53.4861 80.699 54.4234 80.4517 55.1544 80.877L60.2519 83.8452C60.2521 83.8454 60.2525 83.8454 60.2527 83.8456L60.2533 83.8459C60.2544 83.8465 60.2556 83.8473 60.2567 83.8479L61.8507 84.7764C63.4637 85.7152 64.3788 84.3317 64.5461 84.045C64.7132 83.7581 65.4645 82.2808 63.8553 81.3408L63.853 81.3395C63.8528 81.3395 63.8528 81.3393 63.8527 81.3393C63.8523 81.3391 63.8519 81.3387 63.8515 81.3385L57.6025 77.6999C56.8717 77.2744 56.6242 76.3371 57.0497 75.6063C57.4754 74.8755 58.4127 74.6282 59.1435 75.0535L65.3942 78.6931L65.3946 78.6933C65.396 78.694 65.3969 78.6946 65.3981 78.6954L67.3986 79.8603C68.0724 80.2527 68.7061 80.2839 69.2827 79.9539C69.9445 79.5751 70.4087 78.7777 70.4114 78.0151C70.4139 77.3508 70.0735 76.815 69.4 76.4228L67.7841 75.4819C67.7838 75.4817 67.7832 75.4815 67.7828 75.4811L67.7815 75.4803C67.7813 75.4801 67.7809 75.48 67.7807 75.4798L61.5918 71.8764C60.861 71.4509 60.6135 70.5135 61.039 69.7827C61.4647 69.052 62.4018 68.8047 63.1328 69.23L69.3217 72.8334C70.9351 73.7705 71.8488 72.3866 72.0157 72.0997C72.1823 71.8126 72.9332 70.3336 71.3207 69.3946ZM76.5789 64.0607L67.2543 47.9098C60.8233 49.7253 55.275 48.8959 51.5845 48.0834C46.1931 46.8973 44.8722 48.1986 39.3123 53.6765C38.77 54.2107 38.1684 54.8033 37.5266 55.4281L37.15 63.3586C37.1253 63.8784 37.2259 64.1814 37.3368 64.2511C37.5957 64.4138 38.5357 64.3878 39.9539 63.6222C40.9921 63.0617 41.8788 61.1672 42.6613 59.4954C42.9452 58.8887 43.239 58.2616 43.5414 57.6918C43.6985 57.3961 43.9483 57.1601 44.2525 57.0196C44.5296 56.8917 44.8064 56.7604 45.0826 56.6291C47.7322 55.3712 50.7354 53.9454 53.9183 55.7827L72.1371 66.3284L76.5789 64.0607ZM90.3351 60.0871L78.4512 39.5034C78.0351 38.7826 77.11 38.5349 76.3894 38.951L69.618 42.8605C69.2718 43.0603 69.0233 43.3863 68.9182 43.7779C68.8133 44.1695 68.8656 44.5759 69.0656 44.9221L80.9496 65.5062C81.1495 65.8524 81.4754 66.1009 81.867 66.2057C82.259 66.3114 82.665 66.2586 83.0113 66.0586L89.7828 62.1491C90.5035 61.733 90.7514 60.8079 90.3351 60.0871Z" fill="white"/>
</svg>

<svg xmlns="http://www.w3.org/2000/svg" width="98" height="98" fill="none" viewBox="0 0 98 98"><path fill="#fff" d="M43.204 17.876c0-.846.686-1.532 1.532-1.532h23.948a1.531 1.531 0 0 1 0 3.063H44.736a1.53 1.53 0 0 1-1.532-1.531M30.581 21.14a1.527 1.527 0 0 0 2.166 0l4.693-4.694a1.53 1.53 0 1 0-2.165-2.165l-3.611 3.611-1.265-1.264a1.531 1.531 0 0 0-2.165 2.165zm14.155 14.6h23.948a1.531 1.531 0 0 0 0-3.062H44.736a1.531 1.531 0 0 0 0 3.062M30.58 37.637a1.526 1.526 0 0 0 2.166 0l4.693-4.693a1.53 1.53 0 1 0-2.165-2.166l-3.611 3.611-1.265-1.264a1.531 1.531 0 1 0-2.165 2.166zm60.733 27.164-6.771 3.91a4.53 4.53 0 0 1-3.469.453 4.54 4.54 0 0 1-2.776-2.127l-.186-.32-3.425 1.749c1.024 1.623.876 3.626-.024 5.173a5.4 5.4 0 0 1-1.874 1.91 4.7 4.7 0 0 1 .685 2.477c-.007 1.861-1.055 3.661-2.67 4.586a4.67 4.67 0 0 1-2.883.598 5.4 5.4 0 0 1-.729 2.376c-.888 1.526-2.524 2.63-4.405 2.58a5.4 5.4 0 0 1-.736 2.573c-.868 1.49-2.447 2.582-4.275 2.582-.832 0-1.716-.227-2.608-.746l-4.044-2.355-.787 1.119c-.985 1.401-2.43 2.18-4.012 2.18q-.219 0-.439-.02c-1.815-.163-3.487-1.316-4.29-2.95-1.706.881-3.69.56-5.155-.47-.946-.665-1.687-1.634-2.025-2.75-1.407.308-2.88-.064-4.033-.875-1.436-1.01-2.399-2.72-2.198-4.578a5.4 5.4 0 0 1-2.517-.956c-2.053-1.444-3.138-4.317-1.24-7.015l.13-.185-5.077-6.339a4.54 4.54 0 0 1-2.555 1.783 4.53 4.53 0 0 1-3.468-.453L6.685 64.8a4.577 4.577 0 0 1-1.674-6.245l11.885-20.584a4.55 4.55 0 0 1 1.431-1.522V6.013c0-.846.686-1.532 1.531-1.532H78.14c.845 0 1.53.686 1.53 1.532V36.45a4.54 4.54 0 0 1 1.432 1.522l11.884 20.584a4.577 4.577 0 0 1-1.673 6.245M21.391 7.544v28.174c.6.07 1.195.26 1.75.58l6.772 3.91a4.54 4.54 0 0 1 2.127 2.777 4.56 4.56 0 0 1 .042 2.213l8.49 3.033c3.58-3.2 6.222-4.338 11.67-3.139 5.109 1.125 9.393 1.135 13.656.014a4.56 4.56 0 0 1 .062-2.121 4.54 4.54 0 0 1 2.127-2.777l6.77-3.91a4.5 4.5 0 0 1 1.752-.58V7.544zm-4.34 57.962 11.883-20.584a1.5 1.5 0 0 0 .148-1.144 1.5 1.5 0 0 0-.7-.917l-6.771-3.91a1.51 1.51 0 0 0-2.062.552L7.665 60.087a1.51 1.51 0 0 0 .552 2.062l6.772 3.91c.346.2.752.252 1.144.147s.717-.354.917-.7m13.134 12.45 3.519-5.003c1.07-1.526-.23-2.555-.501-2.746-.272-.191-1.68-1.066-2.754.46l-3.517 5c-1.074 1.527.226 2.557.498 2.748.271.191 1.68 1.066 2.754-.458m5.014 5.109 4.916-6.99.747-1.062c1.074-1.527-.227-2.557-.498-2.748-.272-.192-1.681-1.067-2.755.46l-1.399 1.988-.001.002-3.52 5.003-1.042 1.483c-1.074 1.527.226 2.557.498 2.748.271.191 1.681 1.067 2.755-.46zm6.872 2.466.003-.004 1.764-2.507 2.034-2.892c1.073-1.527-.227-2.557-.498-2.748-.272-.19-1.68-1.066-2.753.456l-.001.002-4.916 6.989-.001.001c-1.072 1.526.228 2.555.5 2.746.271.192 1.68 1.067 2.755-.46zm7.026-1.209c-.272-.191-1.68-1.067-2.754.459l-1.764 2.508c-.448.637-.534 1.266-.255 1.869.321.692 1.076 1.223 1.835 1.29.662.06 1.225-.233 1.673-.87l1.764-2.508c1.073-1.526-.227-2.557-.499-2.748m22.224-14.927-18.935-10.96c-1.703-.984-3.385-.276-5.99.96l-.38.18c-.19.382-.381.792-.581 1.218-.983 2.102-2.098 4.483-4.026 5.524-2.27 1.225-4.295 1.412-5.703.526-.648-.408-1.72-1.422-1.615-3.63l.405-8.535a1.53 1.53 0 0 1 .465-1.027c.796-.772 1.51-1.476 2.202-2.157l.917-.901-7.365-2.631-9.577 16.588 5.254 6.561 1.552-2.206c1.896-2.697 4.967-2.647 7.02-1.204a5.4 5.4 0 0 1 1.628 1.807c1.784-1.144 3.959-.857 5.534.251 1.322.93 2.242 2.453 2.224 4.139.998.05 1.972.404 2.786.977 1.817 1.278 2.875 3.676 1.78 6.08.696.154 1.36.452 1.943.862 1.749 1.23 2.794 3.496 1.894 5.808l3.956 2.303c1.613.94 2.528-.444 2.695-.73.167-.288.919-1.765-.69-2.705l-.002-.001h-.001l-5.098-2.969a1.531 1.531 0 1 1 1.541-2.646l5.098 2.968h.001l.004.003 1.594.928c1.613.94 2.528-.444 2.695-.731s.918-1.764-.69-2.704l-.003-.001-.002-.002-6.248-3.638a1.531 1.531 0 1 1 1.54-2.647l6.251 3.64.004.002 2 1.165c.674.393 1.308.424 1.885.094.662-.379 1.126-1.176 1.128-1.939.003-.664-.338-1.2-1.011-1.592l-1.616-.941h-.001l-.002-.002-6.19-3.604a1.531 1.531 0 1 1 1.542-2.646l6.189 3.603c1.613.938 2.527-.446 2.694-.733s.917-1.766-.695-2.705m5.258-5.334L67.254 47.91c-6.43 1.815-11.979.986-15.67.173-5.39-1.186-6.712.116-12.272 5.593a417 417 0 0 1-1.785 1.752l-.377 7.93c-.025.52.076.823.187.893.259.163 1.199.137 2.617-.629 1.038-.56 1.925-2.455 2.707-4.127.284-.606.578-1.233.88-1.803a1.53 1.53 0 0 1 .712-.672l.83-.39c2.65-1.259 5.652-2.685 8.835-.847l18.22 10.545zm13.756-3.974L78.451 39.503a1.51 1.51 0 0 0-2.062-.552l-6.771 3.91c-.346.2-.595.525-.7.917s-.052.798.148 1.144L80.95 65.506c.2.346.525.595.917.7s.798.053 1.144-.147l6.772-3.91c.72-.416.968-1.341.552-2.062"/></svg>
